build/assets/images/svg/icons/lk/basket/question-circle.svg

<svg width="24" height="24" viewBox="0 0 24 24" fill="none" xmlns="http://www.w3.org/2000/svg">
<path fill-rule="evenodd" clip-rule="evenodd" d="M1 12C1 18.0751 5.92487 23 12 23C18.0751 23 23 18.0751 23 12C23 5.92487 18.0751 1 12 1C5.92487 1 1 5.92487 1 12ZM21 12C21 16.9706 16.9706 21 12 21C7.02944 21 3 16.9706 3 12C3 7.02944 7.02944 3 12 3C16.9706 3 21 7.02944 21 12ZM12.0003 16.9983C12.5528 16.9983 13.0007 16.5506 13.0007 15.9983C13.0007 15.4461 12.5528 14.9983 12.0003 14.9983C11.4479 14.9983 11 15.4461 11 15.9983C11 16.5506 11.4479 16.9983 12.0003 16.9983ZM11 14H13C13 13.2016 13.1254 13.0553 13.9472 12.6444C15.3754 11.9303 16 11.2016 16 9.5C16 7.32063 14.2843 6 12 6C9.79086 6 8 7.79086 8 10H10C10 8.89543 10.8954 8 12 8C13.2772 8 14 8.55641 14 9.5C14 10.2984 13.8746 10.4447 13.0528 10.8556C11.6246 11.5697 11 12.2984 11 14Z" fill="#969BA8"/>
</svg>

<svg width="24" height="24" fill="none" xmlns="http://www.w3.org/2000/svg"><path fill-rule="evenodd" clip-rule="evenodd" d="M1 12c0 6.075 4.925 11 11 11s11-4.925 11-11S18.075 1 12 1 1 5.925 1 12zm20 0a9 9 0 11-18 0 9 9 0 0118 0zm-9 4.998a1 1 0 100-2 1 1 0 000 2zM11 14h2c0-.798.125-.945.947-1.356C15.375 11.93 16 11.202 16 9.5 16 7.32 14.284 6 12 6a4 4 0 00-4 4h2a2 2 0 012-2c1.277 0 2 .556 2 1.5 0 .798-.125.945-.947 1.356C11.625 11.57 11 12.298 11 14z" fill="#969BA8"/></svg>
